assets/img/braze_icons/navigation-pointer-off-01.svg

<svg fill="none" height="24" viewBox="0 0 24 24" width="24" xmlns="http://www.w3.org/2000/svg"><g fill="#801ed7"><path clip-rule="evenodd" d="m3.70711 2.29289c-.39053-.39052-1.02369-.39052-1.41422 0-.39052.39053-.39052 1.02369 0 1.41422l3.53169 3.53168-2.8103 1.0967c-.26684.10409-.52527.2049-.72475.30354-.17235.08522-.53869.2749-.74318.66851-.2255.43406-.2252.95086.00082 1.38466.20495.3933.57151.5826.74396.6676.19959.0984.45812.1989.72507.3027l6.71128 2.6099 2.60992 6.7113c.1038.2669.2043.5255.3027.7251.085.1724.2743.539.6676.7439.4338.226.9506.2263 1.3846.0008.3937-.2045.5833-.5708.6686-.7431.0986-.1995.1994-.4579.3035-.7247l1.0967-2.8104 3.5318 3.5318c.3905.3905 1.0237.3905 1.4142 0s.3905-1.0237 0-1.4142z" fill-rule="evenodd"/><path d="m18.349 14.1064 3.9328-10.07779c.0932-.23871.1861-.47663.2441-.67626.0532-.18319.1488-.55165.0166-.94742-.1494-.44714-.5003-.79805-.9474-.94743-.3958-.13221-.7643-.0366-.9475.01661-.1996.05799-.4375.15089-.6762.24409l-10.07778 3.93278z"/></g></svg>

<svg width="24" height="24" viewBox="0 0 24 24" fill="none" xmlns="http://www.w3.org/2000/svg">
<path fill-rule="evenodd" clip-rule="evenodd" d="M3.70711 2.29289C3.31658 1.90237 2.68342 1.90237 2.29289 2.29289C1.90237 2.68342 1.90237 3.31658 2.29289 3.70711L5.82458 7.23879L3.01428 8.33549C2.74744 8.43958 2.48901 8.54039 2.28953 8.63903C2.11718 8.72425 1.75084 8.91393 1.54635 9.30754C1.32085 9.7416 1.32115 10.2584 1.54717 10.6922C1.75212 11.0855 2.11868 11.2748 2.29113 11.3598C2.49072 11.4582 2.74925 11.5587 3.0162 11.6625L9.72748 14.2724L12.3374 20.9837C12.4412 21.2506 12.5417 21.5092 12.6401 21.7088C12.7251 21.8812 12.9144 22.2478 13.3077 22.4527C13.7415 22.6787 14.2583 22.679 14.6923 22.4535C15.086 22.249 15.2756 21.8827 15.3609 21.7104C15.4595 21.5109 15.5603 21.2525 15.6644 20.9857L16.7611 18.1753L20.2929 21.7071C20.6834 22.0976 21.3166 22.0976 21.7071 21.7071C22.0976 21.3166 22.0976 20.6834 21.7071 20.2929L3.70711 2.29289Z" fill="#801ED7"/>
<path d="M18.349 14.1064L22.2818 4.02861C22.375 3.7899 22.4679 3.55198 22.5259 3.35235C22.5791 3.16916 22.6747 2.8007 22.5425 2.40493C22.3931 1.95779 22.0422 1.60688 21.5951 1.4575C21.1993 1.32529 20.8308 1.4209 20.6476 1.47411C20.448 1.5321 20.2101 1.625 19.9714 1.7182L9.89362 5.65098L18.349 14.1064Z" fill="#801ED7"/>
</svg>
